X:184
T:Petticoat Loose  
F:file ID: jol/184pett
Z:bill@capeirish.com
B:JOL.079
Q:160
L:1/8
M:6/8
R:jig
K:G
"A dorian"
B/A/|G2E cEE|GEE G2A|GEE cBc|Adc dcA|
GEE cBc|dcd eag|ege ded|1cAA d2 :|2cAA A2||
d|efg efg|edB c2d|eag age|edc dcd|
efg efg|edB c2d|ege ded|cAA A2 :|

